assets/images/erga.svg

<svg width="228" height="162" viewBox="0 0 228 162" fill="none" xmlns="http://www.w3.org/2000/svg">
<mask id="path-1-inside-1" fill="white">
<path d="M29.7061 79.2997C29.7061 79.2997 29.7061 79.2997 29.7612 79.2526C29.7612 79.2526 29.7612 79.2526 29.7061 79.2997ZM88.172 69.7625L90.2803 75.5869L96.1717 68.5927L109.928 66.6935L111.16 65.4018L102.256 63.0539L88.172 69.7625ZM9.80811 97.2265L5.07178 92.1722L3.66703 97.6169L9.80811 97.2265ZM196.025 123.53L206.452 141.069L208.738 132.916L196.025 123.53ZM222.951 112.844L217.321 93.7277L212.983 91.4312L211.528 85.1438L216.232 78.879L216.213 64.7834L209.731 62.9865L208.441 58.5125L215.675 55.3277L211.911 49.0127L208.008 50.9684L207.602 52.2223L206.451 52.4917L193.224 60.0394L190.548 67.287L185.164 71.7493L182.742 69.9123L177.856 74.5682L167.077 75.8275L159.974 85.8126L155.481 78.9772L140.48 80.3668L141.627 74.2845L136.369 71.2981L113.51 79.8869L107.616 78.445L104.53 76.5557L97.0175 83.2679L92.4235 77.7105L90.2305 78.8236L78.6709 73.6945L64.7022 69.8157L67.4189 65.9662L70.0738 69.4161L72.7018 68.6459L74.856 57.6021L70.6313 53.8742L54.7124 64.9647L40.4737 64.5111C40.4737 64.5111 30.4581 78.2273 29.7652 79.2014L29.7692 79.1503C29.5141 79.1302 27.2499 80.4949 27.2499 80.4949L27.8125 83.7799L28.1978 97.1328L13.4285 98.8493C13.3735 98.8964 13.3694 98.9475 13.3144 98.9946L18.6399 125.237L22.5182 125.542L26.4826 116.287L34.1358 115.604L33.5974 110.058L40.14 107.179L57.1368 124.104L59.8173 122.67L60.0066 120.267L63.2699 117.952L79.1429 121.775L78.877 125.149L87.1048 129.553L89.2399 141.552L101.068 149.789L109.538 147.216L119.644 152.539L121.737 150.749L123.254 145.828L129.084 148.087L129.67 151.066L141.23 154.24L153.51 150.887L160.82 150.64L162.628 140.084L170.116 137.588L177.008 146.567L186.104 148.415L191.103 144.283L189.934 159.108L197.18 159.679L201.239 136.852L193.025 123.807L184.668 124.949L188.757 110.2L202.1 101.17L200.568 89.9897L206.857 86.4217L209.236 103.79L221.193 114.3L222.951 112.844ZM25.5958 57.8344L26.8863 62.3084L30.1898 59.4825L25.5958 57.8344Z"/>
</mask>
<path d="M29.7061 79.2997C29.7061 79.2997 29.7061 79.2997 29.7612 79.2526C29.7612 79.2526 29.7612 79.2526 29.7061 79.2997ZM88.172 69.7625L90.2803 75.5869L96.1717 68.5927L109.928 66.6935L111.16 65.4018L102.256 63.0539L88.172 69.7625ZM9.80811 97.2265L5.07178 92.1722L3.66703 97.6169L9.80811 97.2265ZM196.025 123.53L206.452 141.069L208.738 132.916L196.025 123.53ZM222.951 112.844L217.321 93.7277L212.983 91.4312L211.528 85.1438L216.232 78.879L216.213 64.7834L209.731 62.9865L208.441 58.5125L215.675 55.3277L211.911 49.0127L208.008 50.9684L207.602 52.2223L206.451 52.4917L193.224 60.0394L190.548 67.287L185.164 71.7493L182.742 69.9123L177.856 74.5682L167.077 75.8275L159.974 85.8126L155.481 78.9772L140.48 80.3668L141.627 74.2845L136.369 71.2981L113.51 79.8869L107.616 78.445L104.53 76.5557L97.0175 83.2679L92.4235 77.7105L90.2305 78.8236L78.6709 73.6945L64.7022 69.8157L67.4189 65.9662L70.0738 69.4161L72.7018 68.6459L74.856 57.6021L70.6313 53.8742L54.7124 64.9647L40.4737 64.5111C40.4737 64.5111 30.4581 78.2273 29.7652 79.2014L29.7692 79.1503C29.5141 79.1302 27.2499 80.4949 27.2499 80.4949L27.8125 83.7799L28.1978 97.1328L13.4285 98.8493C13.3735 98.8964 13.3694 98.9475 13.3144 98.9946L18.6399 125.237L22.5182 125.542L26.4826 116.287L34.1358 115.604L33.5974 110.058L40.14 107.179L57.1368 124.104L59.8173 122.67L60.0066 120.267L63.2699 117.952L79.1429 121.775L78.877 125.149L87.1048 129.553L89.2399 141.552L101.068 149.789L109.538 147.216L119.644 152.539L121.737 150.749L123.254 145.828L129.084 148.087L129.67 151.066L141.23 154.24L153.51 150.887L160.82 150.64L162.628 140.084L170.116 137.588L177.008 146.567L186.104 148.415L191.103 144.283L189.934 159.108L197.18 159.679L201.239 136.852L193.025 123.807L184.668 124.949L188.757 110.2L202.1 101.17L200.568 89.9897L206.857 86.4217L209.236 103.79L221.193 114.3L222.951 112.844ZM25.5958 57.8344L26.8863 62.3084L30.1898 59.4825L25.5958 57.8344Z" stroke="#0000BD" stroke-width="3" mask="url(#path-1-inside-1)"/>
<g clip-path="url(#clip0)">
<path d="M148.268 61.5828L114.627 80.8154C109.932 83.5012 105.672 83.741 102.623 81.9665L120.532 92.2782C123.582 94.0528 127.841 93.813 132.536 91.1271L166.177 71.8945L148.268 61.5828Z" fill="white"/>
<path d="M125.034 94.1487C123.291 94.1487 121.645 93.717 120.242 92.9017L102.332 82.5899C101.993 82.3981 101.848 81.9664 102.09 81.5827C102.284 81.247 102.719 81.1031 103.106 81.3429C106.107 83.0696 110.077 82.6379 114.385 80.1919L148.026 60.9592C148.268 60.8153 148.51 60.8153 148.752 60.9592L166.661 71.271C166.903 71.4149 167 71.6547 167 71.8945C167 72.1343 166.855 72.3741 166.613 72.518L132.972 91.7506C130.164 93.3333 127.454 94.1487 125.034 94.1487ZM107.318 83.8369L120.919 91.6547C123.872 93.3813 127.889 92.9496 132.197 90.5036L164.725 71.8945L148.268 62.3981L115.014 81.4389C112.352 82.9736 109.689 83.789 107.318 83.8369Z" fill="#DF0112"/>
<path d="M166.226 71.8944L163.612 73.3812L132.585 91.127C123.291 96.4508 115.643 92.1822 115.643 81.5347C115.595 70.9352 123.146 57.9856 132.488 52.6618L166.129 33.4292L166.032 11.0311L131.084 31.0311C121.306 36.6426 112.158 46.187 105.285 58.0335C98.4113 69.8321 94.6357 82.4939 94.6357 93.621C94.6841 116.595 111.142 125.851 131.326 114.34L166.274 94.3405L166.226 71.8944Z" fill="white"/>
<path d="M114.965 120C111.335 120 107.995 119.185 105.043 117.458C97.9271 113.381 93.958 104.892 93.958 93.5731C93.9096 82.35 97.7335 69.5443 104.704 57.6498C111.626 45.7074 120.919 36.0671 130.794 30.4076L165.741 10.4076C165.984 10.2637 166.226 10.2637 166.468 10.4076C166.71 10.5515 166.855 10.7913 166.855 11.0311L166.903 33.4292C166.903 33.669 166.758 33.9088 166.516 34.0527L132.875 53.2853C123.775 58.5131 116.369 71.175 116.418 81.5347C116.418 86.3788 118.063 89.9759 121.016 91.6546C123.969 93.3333 127.986 92.9496 132.294 90.5035L165.935 71.2709C166.177 71.127 166.419 71.127 166.661 71.2709C166.903 71.4148 167.048 71.6546 167.048 71.8944L167.097 94.2925C167.097 94.5323 166.952 94.7721 166.71 94.916L131.762 114.916C125.808 118.273 120.096 120 114.965 120ZM165.306 12.2781L131.471 31.6546C121.79 37.1702 112.739 46.6666 105.914 58.3692C99.0888 70.0719 95.3617 82.5898 95.3617 93.5731C95.4101 104.364 99.0888 112.422 105.72 116.211C112.448 120.048 121.403 119.137 130.939 113.669L165.499 93.9088L165.451 73.1414L132.923 91.7505C128.18 94.4843 123.678 94.868 120.193 92.9016C116.756 90.9352 114.869 86.9064 114.869 81.5347C114.82 70.6954 122.565 57.458 132.052 52.0383L165.306 32.9975V12.2781Z" fill="#DF0112"/>
<path d="M148.122 0.719482L113.174 20.7195C103.397 26.283 94.2484 35.8754 87.375 47.6739C80.5016 59.4725 76.7261 72.1343 76.7261 83.2614C76.7745 94.6763 80.8404 102.686 87.4234 106.475L105.333 116.787C98.75 112.998 94.6841 104.988 94.6357 93.5732C94.5872 82.4461 98.3628 69.8322 105.285 57.9857C112.158 46.1871 121.355 36.5948 131.084 30.9833L166.032 11.0312L148.122 0.719482Z" fill="white"/>
<path d="M105.333 117.506C105.188 117.506 105.091 117.458 104.946 117.41L87.0361 107.098C79.9691 103.021 76.0484 94.532 76 83.261C75.9516 72.038 79.7755 59.2323 86.7457 47.3378C93.7159 35.3953 102.961 25.7551 112.836 20.0956L147.783 0.0955846C148.025 -0.0483003 148.268 -0.0483003 148.51 0.0955846L166.419 10.4073C166.661 10.5512 166.758 10.791 166.758 11.0308C166.758 11.2706 166.613 11.5105 166.371 11.6543L131.471 31.6543C121.79 37.1699 112.739 46.6663 105.914 58.369C99.0888 70.0716 95.3617 82.5896 95.3617 93.5728C95.4101 104.316 99.0404 112.374 105.672 116.163C106.011 116.355 106.156 116.786 105.914 117.17C105.817 117.41 105.575 117.506 105.333 117.506ZM148.122 1.53443L113.562 21.3426C103.881 26.8582 94.8292 36.3546 88.0042 48.0572C81.1792 59.7598 77.4037 72.2778 77.4521 83.261C77.5005 94.0045 81.1308 102.062 87.7622 105.851L99.4276 112.566C95.8457 107.961 93.9579 101.439 93.9095 93.5728C93.8611 82.3498 97.6851 69.544 104.655 57.6495C111.577 45.7071 120.871 36.0668 130.745 30.4073L164.58 11.0308L148.122 1.53443Z" fill="#DF0112"/>
<path d="M142.217 46.6667V24.8442L124.21 14.7243L148.122 0.719482L166.032 11.0312L166.08 33.4293L142.217 46.6667Z" fill="white"/>
<path d="M142.217 47.3859C142.072 47.3859 141.975 47.3379 141.83 47.2899C141.588 47.1461 141.491 46.9063 141.491 46.6665V25.2276L123.823 15.3475C123.581 15.2036 123.436 14.9638 123.436 14.724C123.436 14.4842 123.581 14.2444 123.775 14.1005L147.687 0.0957066C147.929 -0.0481783 148.171 -0.0481783 148.413 0.0957066L166.322 10.4075C166.564 10.5513 166.661 10.7911 166.661 11.031L166.709 33.429C166.709 33.6688 166.564 33.9087 166.322 34.0525L142.459 47.2899C142.459 47.3859 142.362 47.3859 142.217 47.3859ZM125.614 14.724L142.556 24.1724C142.798 24.3163 142.943 24.5561 142.943 24.7959V45.4194L165.354 32.9974L165.306 11.4146L148.122 1.53456L125.614 14.724Z" fill="#DF0112"/>
<path d="M142.217 108.058V86.1871L166.225 71.8945L166.274 94.2926L142.217 108.058Z" fill="white"/>
<path d="M142.217 108.777C142.072 108.777 141.975 108.729 141.83 108.681C141.588 108.537 141.442 108.297 141.442 108.058V86.1871C141.442 85.9473 141.588 85.7074 141.781 85.5636L165.79 71.271C166.032 71.1271 166.274 71.1271 166.516 71.271C166.758 71.4149 166.903 71.6547 166.903 71.8945L166.951 94.2926C166.951 94.5324 166.806 94.7722 166.564 94.9161L142.507 108.681C142.459 108.777 142.362 108.777 142.217 108.777ZM142.943 86.6187V106.811L165.548 93.8609L165.499 73.1415L142.943 86.6187Z" fill="#DF0112"/>
<path d="M142.217 24.8441L166.032 11.0311L142.217 24.8441Z" fill="#5F98ED"/>
<path d="M142.217 25.5635C141.975 25.5635 141.733 25.4196 141.588 25.2277C141.394 24.892 141.491 24.4604 141.83 24.2206L165.645 10.4556C165.984 10.2637 166.419 10.3596 166.661 10.6954C166.855 11.0311 166.758 11.4628 166.419 11.7026L142.604 25.4676C142.459 25.5155 142.362 25.5635 142.217 25.5635Z" fill="#DF0112"/>
<path d="M142.217 86.1871L123.436 75.8274L148.267 61.5828L166.225 71.8945L142.217 86.1871Z" fill="white"/>
<path d="M142.217 86.9065C142.072 86.9065 141.975 86.8585 141.878 86.8106L123.097 76.4029C122.855 76.259 122.71 76.0192 122.71 75.7794C122.71 75.5396 122.855 75.2998 123.097 75.1559L147.929 60.9592C148.171 60.8153 148.413 60.8153 148.655 60.9592L166.564 71.271C166.806 71.4149 166.903 71.6547 166.903 71.8945C166.903 72.1343 166.758 72.3741 166.564 72.518L142.604 86.8106C142.459 86.9065 142.362 86.9065 142.217 86.9065ZM124.888 75.7794L142.168 85.3717L164.725 71.8945L148.219 62.3981L124.888 75.7794Z" fill="#DF0112"/>
</g>
<defs>
<clipPath id="clip0">
<rect x="76" width="91" height="120" fill="white"/>
</clipPath>
</defs>
</svg>

<svg width="228" height="162" fill="none" xmlns="http://www.w3.org/2000/svg"><mask id="a" fill="#fff"><path d="M29.706 79.3l.055-.047-.055.047zm58.466-9.537l2.108 5.824 5.892-6.994 13.756-1.9 1.232-1.291-8.904-2.348-14.084 6.709zM9.808 97.226l-4.736-5.054-1.405 5.445 6.141-.39zm186.217 26.304l10.427 17.539 2.286-8.153-12.713-9.386zm26.926-10.686l-5.63-19.116-4.338-2.297-1.455-6.287 4.704-6.265-.019-14.096-6.482-1.797-1.29-4.473 7.234-3.185-3.764-6.315-3.903 1.955-.406 1.254-1.151.27-13.227 7.547-2.676 7.248-5.384 4.462-2.422-1.837-4.886 4.656-10.779 1.26-7.103 9.985-4.493-6.836-15.001 1.39 1.147-6.083-5.258-2.986-22.859 8.589-5.894-1.442-3.086-1.89-7.513 6.713-4.593-5.558-2.194 1.114-11.56-5.13-13.968-3.878 2.717-3.85 2.655 3.45 2.628-.77 2.154-11.044-4.225-3.728-15.919 11.09-14.238-.453s-10.016 13.716-10.709 14.69l.004-.05c-.255-.02-2.52 1.344-2.52 1.344l.564 3.285.385 13.353-14.77 1.716c-.055.047-.059.099-.114.146l5.326 26.242 3.878.305 3.965-9.255 7.653-.683-.539-5.546 6.543-2.879 16.997 16.925 2.68-1.434.19-2.403 3.263-2.315 15.873 3.823-.266 3.374 8.228 4.404 2.135 11.999 11.828 8.237 8.47-2.573 10.106 5.323 2.093-1.79 1.517-4.921 5.83 2.259.586 2.979 11.56 3.174 12.28-3.353 7.31-.247 1.808-10.556 7.488-2.496 6.892 8.979 9.096 1.848 4.999-4.132-1.169 14.825 7.246.571 4.059-22.827-8.214-13.045-8.357 1.142 4.089-14.749 13.343-9.03-1.532-11.18 6.289-3.568 2.379 17.368 11.957 10.51 1.758-1.456zM25.596 57.834l1.29 4.474 3.304-2.825-4.594-1.649z"/></mask><path d="M29.706 79.3l.055-.047-.055.047zm58.466-9.537l2.108 5.824 5.892-6.994 13.756-1.9 1.232-1.291-8.904-2.348-14.084 6.709zM9.808 97.226l-4.736-5.054-1.405 5.445 6.141-.39zm186.217 26.304l10.427 17.539 2.286-8.153-12.713-9.386zm26.926-10.686l-5.63-19.116-4.338-2.297-1.455-6.287 4.704-6.265-.019-14.096-6.482-1.797-1.29-4.473 7.234-3.185-3.764-6.315-3.903 1.955-.406 1.254-1.151.27-13.227 7.547-2.676 7.248-5.384 4.462-2.422-1.837-4.886 4.656-10.779 1.26-7.103 9.985-4.493-6.836-15.001 1.39 1.147-6.083-5.258-2.986-22.859 8.589-5.894-1.442-3.086-1.89-7.513 6.713-4.593-5.558-2.194 1.114-11.56-5.13-13.968-3.878 2.717-3.85 2.655 3.45 2.628-.77 2.154-11.044-4.225-3.728-15.919 11.09-14.238-.453s-10.016 13.716-10.709 14.69l.004-.05c-.255-.02-2.52 1.344-2.52 1.344l.564 3.285.385 13.353-14.77 1.716c-.055.047-.059.099-.114.146l5.326 26.242 3.878.305 3.965-9.255 7.653-.683-.539-5.546 6.543-2.879 16.997 16.925 2.68-1.434.19-2.403 3.263-2.315 15.873 3.823-.266 3.374 8.228 4.404 2.135 11.999 11.828 8.237 8.47-2.573 10.106 5.323 2.093-1.79 1.517-4.921 5.83 2.259.586 2.979 11.56 3.174 12.28-3.353 7.31-.247 1.808-10.556 7.488-2.496 6.892 8.979 9.096 1.848 4.999-4.132-1.169 14.825 7.246.571 4.059-22.827-8.214-13.045-8.357 1.142 4.089-14.749 13.343-9.03-1.532-11.18 6.289-3.568 2.379 17.368 11.957 10.51 1.758-1.456zM25.596 57.834l1.29 4.474 3.304-2.825-4.594-1.649z" stroke="#0000BD" stroke-width="3" mask="url(#a)"/><g clip-path="url(#clip0)"><path d="M148.268 61.583l-33.641 19.232c-4.695 2.686-8.955 2.926-12.004 1.151l17.909 10.312c3.05 1.775 7.309 1.535 12.004-1.15l33.641-19.234-17.909-10.311z" fill="#fff"/><path d="M125.034 94.149c-1.743 0-3.389-.432-4.792-1.247l-17.91-10.312a.7.7 0 01-.242-1.007.714.714 0 011.016-.24c3.001 1.727 6.971 1.295 11.279-1.151l33.641-19.233a.664.664 0 01.726 0l17.909 10.312a.698.698 0 01.339.623c0 .24-.145.48-.387.624l-33.641 19.233c-2.808 1.582-5.518 2.398-7.938 2.398zm-17.716-10.312l13.601 7.818c2.953 1.726 6.97 1.295 11.278-1.151l32.528-18.61-16.457-9.496-33.254 19.04c-2.662 1.536-5.325 2.351-7.696 2.399z" fill="#DF0112"/><path d="M166.226 71.894l-2.614 1.487-31.027 17.746c-9.294 5.324-16.942 1.055-16.942-9.592-.048-10.6 7.503-23.55 16.845-28.873l33.641-19.233-.097-22.398-34.948 20c-9.778 5.612-18.926 15.156-25.799 27.002-6.874 11.8-10.65 24.46-10.65 35.588.05 22.974 16.507 32.23 36.691 20.719l34.948-20-.048-22.446z" fill="#fff"/><path d="M114.965 120c-3.63 0-6.97-.815-9.922-2.542-7.116-4.077-11.085-12.566-11.085-23.885-.048-11.223 3.776-24.029 10.746-35.923 6.922-11.943 16.215-21.583 26.09-27.242l34.947-20a.666.666 0 01.727 0c.242.144.387.383.387.623l.048 22.398c0 .24-.145.48-.387.624l-33.641 19.232c-9.1 5.228-16.506 17.89-16.457 28.25 0 4.844 1.645 8.44 4.598 10.12 2.953 1.678 6.97 1.295 11.278-1.151l33.641-19.233a.664.664 0 01.726 0c.242.144.387.384.387.623l.049 22.398c0 .24-.145.48-.387.624l-34.948 20c-5.954 3.357-11.666 5.084-16.797 5.084zm50.341-107.722l-33.835 19.377c-9.681 5.515-18.732 15.012-25.557 26.714-6.825 11.703-10.552 24.22-10.552 35.204.048 10.791 3.727 18.849 10.358 22.638 6.728 3.837 15.683 2.926 25.219-2.542l34.56-19.76-.048-20.768-32.528 18.61c-4.743 2.733-9.245 3.117-12.73 1.15-3.437-1.966-5.324-5.995-5.324-11.366-.049-10.84 7.696-24.077 17.183-29.497l33.254-19.04v-20.72z" fill="#DF0112"/><path d="M148.122.72l-34.948 20c-9.777 5.563-18.926 15.155-25.799 26.954-6.873 11.798-10.649 24.46-10.649 35.587.049 11.415 4.114 19.425 10.697 23.214l17.91 10.312c-6.583-3.789-10.649-11.799-10.697-23.214-.049-11.127 3.727-23.74 10.649-35.587 6.873-11.799 16.07-21.391 25.799-27.003l34.948-19.952L148.122.72z" fill="#fff"/><path d="M105.333 117.506c-.145 0-.242-.048-.387-.096l-17.91-10.312C79.97 103.021 76.048 94.532 76 83.261c-.048-11.223 3.775-24.029 10.746-35.923 6.97-11.943 16.215-21.583 26.09-27.242l34.947-20a.666.666 0 01.727 0l17.909 10.311a.698.698 0 01.339.624c0 .24-.145.48-.387.623l-34.9 20c-9.681 5.516-18.732 15.012-25.557 26.715-6.825 11.703-10.552 24.22-10.552 35.204.048 10.743 3.678 18.801 10.31 22.59a.7.7 0 01.242 1.007c-.097.24-.339.336-.581.336zM148.122 1.534l-34.56 19.809c-9.681 5.515-18.733 15.012-25.558 26.714-6.825 11.703-10.6 24.22-10.552 35.204.049 10.743 3.679 18.801 10.31 22.59l11.666 6.715c-3.582-4.605-5.47-11.127-5.519-18.993-.048-11.223 3.776-24.029 10.746-35.923 6.922-11.943 16.216-21.583 26.09-27.243l33.835-19.376-16.458-9.497z" fill="#DF0112"/><path d="M142.217 46.667V24.844l-18.007-10.12L148.122.72l17.91 10.312.048 22.398-23.863 13.238z" fill="#fff"/><path d="M142.217 47.386c-.145 0-.242-.048-.387-.096a.697.697 0 01-.339-.623v-21.44l-17.668-9.88c-.242-.143-.387-.383-.387-.623s.145-.48.339-.623L147.687.095a.664.664 0 01.726 0l17.909 10.312a.697.697 0 01.339.623l.048 22.398c0 .24-.145.48-.387.623L142.459 47.29c0 .096-.097.096-.242.096zm-16.603-32.662l16.942 9.448c.242.144.387.384.387.624v20.623l22.411-12.422-.048-21.582-17.184-9.88-22.508 13.189z" fill="#DF0112"/><path d="M142.217 108.058v-21.87l24.008-14.294.049 22.399-24.057 13.765z" fill="#fff"/><path d="M142.217 108.777c-.145 0-.242-.048-.387-.096-.242-.144-.388-.384-.388-.623v-21.87c0-.24.146-.48.339-.624L165.79 71.27a.664.664 0 01.726 0c.242.144.387.384.387.623l.048 22.399c0 .24-.145.48-.387.623l-24.057 13.765c-.048.096-.145.096-.29.096zm.726-22.158v20.192l22.605-12.95-.049-20.72-22.556 13.478z" fill="#DF0112"/><path d="M142.217 24.844l23.815-13.813-23.815 13.813z" fill="#5F98ED"/><path d="M142.217 25.564c-.242 0-.484-.144-.629-.336a.762.762 0 01.242-1.007l23.815-13.765a.778.778 0 011.016.24c.194.335.097.767-.242 1.007l-23.815 13.765c-.145.047-.242.096-.387.096z" fill="#DF0112"/><path d="M142.217 86.187l-18.781-10.36 24.831-14.244 17.958 10.311-24.008 14.293z" fill="#fff"/><path d="M142.217 86.906a.706.706 0 01-.339-.095l-18.781-10.408c-.242-.144-.387-.384-.387-.624s.145-.48.387-.623l24.832-14.197a.664.664 0 01.726 0l17.909 10.312a.698.698 0 01.339.623c0 .24-.145.48-.339.624l-23.96 14.293c-.145.095-.242.095-.387.095zM124.888 75.78l17.28 9.593 22.557-13.478-16.506-9.496-23.331 13.381z" fill="#DF0112"/></g><defs><clipPath id="clip0"><path fill="#fff" d="M76 0h91v120H76z"/></clipPath></defs></svg>
